images/tick-icon.svg

<svg width="50" height="50" viewBox="0 0 50 50" fill="none" xmlns="http://www.w3.org/2000/svg">
<path fill-rule="evenodd" clip-rule="evenodd" d="M25 45.695C13.5633 45.695 4.30498 36.4367 4.30498 25.0259C4.30498 13.6151 13.5633 4.35685 25 4.35685C36.4367 4.35685 45.695 13.6151 45.695 25.0259C45.695 36.4108 36.4367 45.695 25 45.695ZM0 25.4409C0.0518672 28.138 0.518672 30.7832 1.40041 33.3247C2.74896 37.1369 4.92739 40.4305 7.85788 43.2054C10.6587 45.8247 13.9004 47.7178 17.5571 48.8849C19.9948 49.6369 22.4326 50 25 50V46.3952C22.5882 46.3952 20.306 46.0062 18.0239 45.2282C15.0415 44.1909 12.4222 42.583 10.166 40.4046C7.36514 37.6815 5.39419 34.388 4.35685 30.6017C3.89004 28.89 3.65664 27.1266 3.63071 25.3631L0 25.4409ZM26.7116 49.9481C29.279 49.7666 31.7687 49.1961 34.1805 48.2624C37.3963 46.9658 40.223 45.1245 42.6867 42.6867C45.5654 39.7822 47.666 36.3589 48.8849 32.4429C49.6369 30.0052 50 27.5674 50 25V23.7552L46.3952 23.9367V24.9741C46.3952 27.6971 45.9025 30.2645 44.917 32.8319C43.8278 35.555 42.2718 37.9409 40.223 40.0156C37.9668 42.2718 35.3475 43.9575 32.3651 45.0726C30.472 45.7728 28.501 46.1878 26.4782 46.3174L26.7116 49.9481ZM41.9087 6.58714C39.4969 4.38278 36.7998 2.72303 33.7396 1.58195C30.8869 0.518672 28.0342 0.0259336 25 0C23.8071 0 22.666 0.0778008 21.499 0.233402C18.2054 0.726141 15.1712 1.78942 12.2925 3.4751C10.2956 4.66805 8.48029 6.0944 6.87241 7.78008L9.4917 10.2438C10.2438 9.46577 11.0477 8.73963 11.9035 8.06535C15.4046 5.39419 19.4761 3.86411 23.9108 3.63071C24.2739 3.60477 24.6369 3.60477 25.0259 3.60477C27.749 3.60477 30.3164 4.09751 32.8838 5.08299C35.3475 6.06846 37.5519 7.44295 39.5228 9.23236L41.9087 6.58714ZM25 39.5228C16.9865 39.5228 10.4772 33.0135 10.4772 25C10.4772 16.9865 16.9865 10.4772 25 10.4772C33.0135 10.4772 39.5228 16.9865 39.5228 25C39.5228 33.0135 33.0135 39.5228 25 39.5228Z" fill="url(#paint0_linear_2135_175)"/>
<path d="M31.9998 20.3418C31.6092 19.9512 30.9761 19.9512 30.5855 20.3418L23.3404 27.5869C22.9499 27.9774 22.3167 27.9774 21.9262 27.5869L19.3848 25.0455C18.9943 24.6549 18.3611 24.6549 17.9706 25.0455C17.5801 25.436 17.5801 26.0692 17.9706 26.4597L20.5175 28.9999C21.6894 30.1687 23.5866 30.1676 24.7572 28.9973L31.9998 21.756C32.3903 21.3655 32.3903 20.7323 31.9998 20.3418Z" fill="#02F7EA"/>
<defs>
<linearGradient id="paint0_linear_2135_175" x1="-11.1738" y1="2.68138" x2="63.1431" y2="92.0365" gradientUnits="userSpaceOnUse">
<stop stop-color="white"/>
<stop offset="0.1685" stop-color="#5E5E5E"/>
<stop offset="0.2637" stop-color="#DEDEDE"/>
<stop offset="0.3956" stop-color="#8E8E8E"/>
<stop offset="0.5421" stop-color="#636363"/>
<stop offset="0.6264" stop-color="#5F5F5F"/>
<stop offset="0.7179" stop-color="#EAEAEA"/>
<stop offset="0.7912" stop-color="white"/>
<stop offset="1" stop-color="#454545"/>
</linearGradient>
</defs>
</svg>

<svg width="50" height="50" fill="none" xmlns="http://www.w3.org/2000/svg"><path fill-rule="evenodd" clip-rule="evenodd" d="M25 45.695c-11.437 0-20.695-9.258-20.695-20.67 0-11.41 9.258-20.668 20.695-20.668 11.437 0 20.695 9.258 20.695 20.669 0 11.385-9.258 20.669-20.695 20.669zM0 25.441a25.472 25.472 0 001.4 7.884c1.349 3.812 3.527 7.105 6.458 9.88a25.298 25.298 0 009.7 5.68A24.89 24.89 0 0025 50v-3.605a21.29 21.29 0 01-6.976-1.167 21.207 21.207 0 01-7.858-4.823c-2.8-2.724-4.772-6.017-5.81-9.803a21.09 21.09 0 01-.725-5.239L0 25.441zm26.712 24.507a25.59 25.59 0 007.469-1.686c3.215-1.296 6.042-3.138 8.506-5.575 2.878-2.905 4.979-6.328 6.198-10.244A24.89 24.89 0 0050 25v-1.245l-3.605.182v1.037c0 2.723-.492 5.29-1.478 7.858a21.415 21.415 0 01-4.694 7.184 21.773 21.773 0 01-7.858 5.057 20.736 20.736 0 01-5.887 1.244l.234 3.631zm15.197-43.36a24.8 24.8 0 00-8.17-5.006C30.888.519 28.035.026 25 0a26.27 26.27 0 00-3.501.233 25.38 25.38 0 00-9.206 3.242 25.556 25.556 0 00-5.42 4.305l2.619 2.464a24.06 24.06 0 012.411-2.179c3.502-2.67 7.573-4.2 12.008-4.434.363-.026.726-.026 1.115-.026 2.723 0 5.29.493 7.858 1.478a21.845 21.845 0 016.639 4.15l2.386-2.646zM25 39.522c-8.014 0-14.523-6.51-14.523-14.523 0-8.014 6.51-14.523 14.523-14.523 8.014 0 14.523 6.51 14.523 14.523 0 8.014-6.51 14.523-14.523 14.523z" fill="url(#paint0_linear_2135_175)"/><path d="M32 20.342a1 1 0 00-1.415 0l-7.245 7.245a1 1 0 01-1.414 0l-2.541-2.541a1 1 0 10-1.414 1.414L20.517 29a3 3 0 004.24-.003L32 21.756a1 1 0 000-1.414z" fill="#02F7EA"/><defs><linearGradient id="paint0_linear_2135_175" x1="-11.174" y1="2.681" x2="63.143" y2="92.037" gradientUnits="userSpaceOnUse"><stop stop-color="#fff"/><stop offset=".169" stop-color="#5E5E5E"/><stop offset=".264" stop-color="#DEDEDE"/><stop offset=".396" stop-color="#8E8E8E"/><stop offset=".542" stop-color="#636363"/><stop offset=".626" stop-color="#5F5F5F"/><stop offset=".718" stop-color="#EAEAEA"/><stop offset=".791" stop-color="#fff"/><stop offset="1" stop-color="#454545"/></linearGradient></defs></svg>
